X:140
T: Shannon Shore
S: Maureen Glynn Connolly
Z: B.Black
R: reel
M: 4/4
L: 1/8
K: D
D3 d cAAB | =cded ^cAGE | D2 dB cABd | cAGE ADDG |
(3EFG AB =c2 AB | =cded ^cAde | (3fga ed d=cAB |
1 =cAGE ED^CE :|2 =cAGE EDFA || d3 e fefg | afge d2 dc |
Adde (3fga ec|d=cAG FDFA|dcde f3 g|afge defg|
afge dged|1 =cAGE FDFA :|2 =cAGE ED^CE ||
